X:390
T:Goby O,The. RH.390
R:jig
S:Rev.R.Harrison’s MS,c1815,Cumbria
O:England
A:Temple Sowerby,Cumbria
Z:vmp.Simon Wilson. Review PJH, 2008.
M:6/8
L:1/8
Q:3/8=120
K:Am
B|c2A (AcA)|E2A A2c|B2G (GBc)|dBG GAB|!
c2A AcA|E2A A2g|edc BAB|E2A A2:|!
|:A|A2B c2d|e2^f g3|^faf gfe|(dBG) B2d|!
A2B c2d|e2^g aga|edc BAB|E2A A2:|

